!!!!SEGMENT: pl-stab--15a--001-003_rodowski-aleksander--missa-in-b-patrem.krn
!!!cenid: 18xx:3443
!!!COM: Rodowski, Aleksander
!!!COM-rismID: pe30009627
!!!CDT: <1790->1810
!!!CNT: Polish
!!!OPR: Missa in B
!!!OTL: Patrem
!!!OMV: 003
!!!PDT: 1802
!!!AGN:
!!!SMS-siglum: PL-STAb
!!!SMS-shelfmark: 15a
!!!SMS-shelfwork: 001-003 M
!!!SMS-variant: Canto PL-STAb 15a: 9-11
!!!SMS-altvar: Canto PL-STAb 15a: 12-15
!!!NIFC-rismSourceID: 301050682
!!!NIFC-islandoraID: pl-stab:2768
!!!URL-pdf-islandora: https://repozytorium.nifc.pl/islandora/object/pl-stab%3A2768/datastream/PDF/view
!!!URL-scan: https://polish.musicsources.pl/pl/lokalizacje/galeria/rekopisy/4421 @EN{Scan on Polish Music Sources Website} @PL{Skany w portalu Dziedzictwo Muzyki Polskiej w otwartym dostępie}
!!!ONB-nifc: UWAGA: części Mszy: 1. Kyrie, 2. Gloria, 3. Patrem, 4. Sanctus, 5. Benedictus, 6. Agnus Dei
!!!AIN: 1 bass 2 clars 2 cor 1 organ 1 soprn 2 violn
!!!key: C
**kern	**kern	**dynam	**kern	**dynam	**kern	**text	**kern	**text	**kern	**kern	**kern	**kern
*part9	*part8	*part8	*part7	*part7	*part6	*part6	*part5	*part5	*part4	*part3	*part2	*part1
*group5	*group4	*	*group4	*	*group3	*group3	*group3	*group3	*group2	*group2	*group1	*group1
*staff9	*staff8	*	*staff7	*	*staff6	*staff6	*staff5	*staff5	*staff4	*staff3	*staff2	*staff1
*I"Organo	*I"Violino Secundo	*	*I"Violino Primo	*	*I"Baſso	*	*I"Canto	*	*I"Cornu Secundo in B.	*I"Cornu Primo in B.	*I"Clarinetto Secundo	*I"Clarinetto Primo
*I'org	*I'vl 2	*	*I'vl 1	*	*I'B	*	*I'S	*	*I'cor 2	*I'cor 1	*I'cl 2	*I'cl 1
*Iorgan	*Ivioln	*	*Ivioln	*	*Ibass	*	*Isoprn	*	*Icor	*Icor	*Iclars	*Iclars
*ICklav	*ICstr	*	*ICstr	*	*ICvox	*	*ICvox	*	*ICbras	*ICbras	*ICww	*ICww
*clefF4	*clefG2	*	*clefG2	*	*clefF4	*	*clefC1	*	*clefG2	*clefG2	*clefG2	*clefG2
*	*	*	*	*	*	*	*	*	*ITrd0c0	*ITrd0c0	*ITrd1c2	*ITrd1c2
*k[]	*k[]	*	*k[]	*	*k[]	*	*k[]	*	*k[]	*k[]	*k[]	*k[]
*C:	*C:	*	*C:	*	*C:	*	*C:	*	*C:	*C:	*C:	*C:
*M2/2	*M2/2	*	*M2/2	*	*M2/2	*	*M2/2	*	*M2/2	*M2/2	*M2/2	*M2/2
*met(c|)	*met(c|)	*	*met(c|)	*	*met(c|)	*	*met(c|)	*	*met(c|)	*met(c|)	*met(c|)	*met(c|)
=1	=1	=1	=1	=1	=1	=1	=1	=1	=1	=1	=1	=1
*2\right	*2\right	*2\right	*2\right	*2\right	*2\right	*2\right	*2\right	*2\right	*2\right	*2\right	*2\right	*2\right
*	*tremolo	*	*	*	*	*	*	*	*	*	*	*
!!LO:TX:t=P:problem:odwrócone metrum
!	!	!	!	!	!	!	!	!	!LO:TX:t=Credo	!LO:TX:t=Credo	!	!
!	!	!	!	!	!	!	!	!	!LO:TX:t=in C.	!LO:TX:t=in C.	!LO:TX:a:B:t=Allegro	!
4C/	8eL 8G/	.	2cc\	.	2E\	Pa-	2cc\	Pa-	1e	1cc	1cc	1ee
.	8e 8G/	.	.	.	.	.	.	.	.	.	.	.
4c\	8e 8G/	.	.	.	.	.	.	.	.	.	.	.
.	8eJ 8G/	.	.	.	.	.	.	.	.	.	.	.
4e\	8eL 8G/	.	4ee\	.	4G\	-tre(m)	4ee\	-trem	.	.	.	.
.	8e 8G/	.	.	.	.	.	.	.	.	.	.	.
4c\	8e 8G/	.	4gg\	.	4c\	o-	4gg\	o-	.	.	.	.
.	8eJ 8G/	.	.	.	.	.	.	.	.	.	.	.
=2	=2	=2	=2	=2	=2	=2	=2	=2	=2	=2	=2	=2
4GG/	8fL 8G/	.	4gg\	.	4e\	-mni-	4gg\	-mni-	1g	1dd	1dd	1ff
.	8f 8G/	.	.	.	.	.	.	.	.	.	.	.
4G\	8f 8G/	.	4ff\	.	4d\	-po-	4ff\	-po-	.	.	.	.
.	8fJ 8G/	.	.	.	.	.	.	.	.	.	.	.
4B\	8fL 8G/	.	2dd\	.	2B\	-ten-	2dd\	-ten-	.	.	.	.
.	8f 8G/	.	.	.	.	.	.	.	.	.	.	.
4G\	8f 8G/	.	.	.	.	.	.	.	.	.	.	.
.	8fJ 8G/	.	.	.	.	.	.	.	.	.	.	.
=3	=3	=3	=3	=3	=3	=3	=3	=3	=3	=3	=3	=3
4C/	8eL 8G/	.	4cc\	.	4c\	-tem	4cc\	-tem	1e	1cc	1cc	1ee
.	8e 8G/	.	.	.	.	.	.	.	.	.	.	.
4c\	8e 8G/	.	4cc\	.	4E\	fa-	4cc\	fa-	.	.	.	.
.	8eJ 8G/	.	.	.	.	.	.	.	.	.	.	.
4e\	8eL 8G/	.	4ee\	.	4G\	-cto-	4ee\	-cto-	.	.	.	.
.	8e 8G/	.	.	.	.	.	.	.	.	.	.	.
4c\	8e 8G/	.	4gg\	.	4c\	-re(m)	4gg\	-rem	.	.	.	.
.	8eJ 8G/	.	.	.	.	.	.	.	.	.	.	.
=4	=4	=4	=4	=4	=4	=4	=4	=4	=4	=4	=4	=4
4GG/	8fL 8G/	.	8gg\L	.	8e\L	Cae-	8gg\L	Cae-	1g	1dd	1dd	1ff
.	8f 8G/	.	8ff\	.	8d\	.	8ff\J	.	.	.	.	.
4G\	8f 8G/	.	8ee\	.	8c\	.	8ee\	-li	.	.	.	.
.	8fJ 8G/	.	8ff\J	.	8d\J	.	8ff\	et	.	.	.	.
4B\	8fL 8G/	.	2dd\	.	2B\	-li	2dd\	ter-	.	.	.	.
.	8f 8G/	.	.	.	.	.	.	.	.	.	.	.
4G\	8f 8G/	.	.	.	.	.	.	.	.	.	.	.
.	8fJ 8G/	.	.	.	.	.	.	.	.	.	.	.
*	*Xtremolo	*	*	*	*	*	*	*	*	*	*	*
=5	=5	=5	=5	=5	=5	=5	=5	=5	=5	=5	=5	=5
4c\	4e/	.	4cc\	.	4c\	vi-	4cc\	-rae	2e/	2cc\	1cc	1ee
4C/	4e/	.	4cc\	.	8E\L	-si-	8cc\	vi-	.	.	.	.
.	.	.	.	.	8E\J	.	8cc\	-si-	.	.	.	.
4E/	4e/	.	4cc\	.	4E\	-bi-	4cc\	-bi-	2cc\	2ee\	.	.
4C/	8B/L	.	8dd\L	.	8B\L	-li-	8dd\	-li-	.	.	.	.
.	8c/J	.	8ee\J	.	8c\J	-um	8ee\	-um	.	.	.	.
!	!	!	!	!	!LO:LB:g=original	!	!	!	!	!	!	!
=6	=6	=6	=6	=6	=6	=6	=6	=6	=6	=6	=6	=6
4GG/	4d/	.	8gg\L	.	8e\L	O-	8gg\L	om-	2dd\	2ff\	2dd\	2ff\
.	.	.	8ff\	.	8d\	.	8ff\J	-ni-	.	.	.	.
4G\	4B/	.	8ee\	.	8c\	-mni-	8ee\L	-um	.	.	.	.
.	.	.	8ff\J	.	8d\J	-u(m)	8ff\J	.	.	.	.	.
!	!	!	!	!	!	!	!LO:LB:g=original	!	!	!	!	!
4B\	4G/	.	4dd\	.	4B\	et	4dd\	et	2g/	2dd\	2b\	2dd\
4G\	4B/	.	8gg\L	.	8e\L	in-	8gg\	in-	.	.	.	.
.	.	.	8ff\J	.	8d\J	.	8ff\	.	.	.	.	.
=7	=7	=7	=7	=7	=7	=7	=7	=7	=7	=7	=7	=7
4c\	4e/	.	8ff\L	.	4c\	-ui-	4ee\	-vi-	4cc\	4ee\	4cc\	4ee\
.	.	.	8ee\	.	.	.	.	.	.	.	.	.
!LO:SIC:v:s=4E\	!	!	!	!	!	!	!	!	!	!	!	!
4F\	4a/	.	8dd\	.	4E\	-si-	4cc\	-si-	4g/	4cc\	4e/	4cc\
.	.	.	8cc\J	.	.	.	.	.	.	.	.	.
!LO:SIC:v:s=4F\	!	!	!	!	!	!	!	!	!	!LO:SIC:v:s=4ff\	!	!
4G\	4f/	.	8ee\L	.	4F\	-bi-	4dd\	-bi-	4dd\	4ee\	4f/	4dd\
.	.	.	8dd\	.	.	.	.	.	.	.	.	.
4GG/	4g/	.	8cc\	.	4G\	-li-	4b\	-li-	4g/	4dd\	4d/	4b\
.	.	.	8b\J	.	.	.	.	.	.	.	.	.
=8	=8	=8	=8	=8	=8	=8	=8	=8	=8	=8	=8	=8
4C/	4e 4G/	.	4cc\	.	4C/	-[[n]]um	4cc\	-um	4e/	4cc\	4e/	4cc\
4r	4r	.	4r	.	4r	.	4r	.	4r	4r	4r	4r
!	!	!	!	!	!LO:TX:t=P:problem:"Jesum Christum Dei" poprawione na "et in unum Jesu(m)"	!	!	!	!	!	!	!
2r	2r	.	2r	.	4c\	et	2r	.	2r	2r	2r	2r
.	.	.	.	.	4G\	in	.	.	.	.	.	.
!LO:LB:g=original	!	!	!	!	!	!	!	!	!	!	!	!
=9	=9	=9	=9	=9	=9	=9	=9	=9	=9	=9	=9	=9
!	!	!	!	!	!	!	!LO:TX:a:t=7:problem:dopisane ołówkiem	!	!	!	!	!
1r	1r	.	1r	.	4E\	u-	00r	.	00r	00r	00r	00r
.	.	.	.	.	4G\	.	.	.	.	.	.	.
.	.	.	.	.	4E\	.	.	.	.	.	.	.
.	.	.	.	.	4G\	.	.	.	.	.	.	.
=10	=10	=10	=10	=10	=10	=10	=10	=10	=10	=10	=10	=10
4C/	8r	.	8r	.	4C/	-num	.	.	.	.	.	.
.	8c/L	.	8cc\L	.	.	.	.	.	.	.	.	.
4r	8B/	.	8dd\	.	4r	.	.	.	.	.	.	.
.	8c/J	.	8ee\J	.	.	.	.	.	.	.	.	.
2r	8d/L	.	8ff\L	.	4c\	Je-	.	.	.	.	.	.
.	8e/	.	8gg\	.	.	.	.	.	.	.	.	.
.	8f/	.	8aa\	.	4G\	-su(m)	.	.	.	.	.	.
.	8d/J	.	8bb\J	.	.	.	.	.	.	.	.	.
=11	=11	=11	=11	=11	=11	=11	=11	=11	=11	=11	=11	=11
1r	4e 4G/	.	4ccc\	.	4E\	Chri-	.	.	.	.	.	.
.	4r	.	4r	.	4G\	.	.	.	.	.	.	.
.	2r	.	2r	.	4E\	.	.	.	.	.	.	.
.	.	.	.	.	4G\	.	.	.	.	.	.	.
!	!LO:LB:g=original	!	!LO:LB:g=original	!	!	!	!	!	!	!	!	!
=12	=12	=12	=12	=12	=12	=12	=12	=12	=12	=12	=12	=12
4C/	8r	.	8r	.	4C/	-stu(m)	.	.	.	.	.	.
.	8c/L	.	8cc\L	.	.	.	.	.	.	.	.	.
4r	8B/	.	8dd\	.	4r	.	.	.	.	.	.	.
.	8c/J	.	8ee\J	.	.	.	.	.	.	.	.	.
2r	8d/L	.	8ff\L	.	4c\	De-	.	.	.	.	.	.
.	8e/	.	8gg\	.	.	.	.	.	.	.	.	.
.	8f/	.	8aa\	.	4A\	-i	.	.	.	.	.	.
.	8d/J	.	8bb\J	.	.	.	.	.	.	.	.	.
!	!	!	!	!	!LO:LB:g=original	!	!	!	!	!	!	!
=13	=13	=13	=13	=13	=13	=13	=13	=13	=13	=13	=13	=13
!	!	!	!	!	!LO:SIC:v:s=2.F#\	!	!	!	!	!	!	!
4r	4e/	.	4ccc\	.	2.F\	u-	0r	.	00r	00r	00r	00r
4D/	4d/	.	4aa\	.	.	.	.	.	.	.	.	.
!LO:SIC:v:s=4F#/	!	!	!	!	!	!	!	!	!	!	!	!
4F/	4d/	.	4ff#X\	.	.	.	.	.	.	.	.	.
4D/	4d/	.	4aa\	.	4A\	-ni	.	.	.	.	.	.
=14	=14	=14	=14	=14	=14	=14	=14	=14	=14	=14	=14	=14
*	*	*	*	*	*	*ij	*	*	*	*	*	*
4r	2.f#X/	.	2.dd\	.	2.d\	u-	.	.	.	.	.	.
4D/	.	.	.	.	.	.	.	.	.	.	.	.
!LO:SIC:v:s=4F#/	!	!	!	!	!	!	!	!	!	!	!	!
4F/	.	.	.	.	.	.	.	.	.	.	.	.
!	!	!	!LO:SIC:v:s=4ff#\	!	!	!	!	!	!	!	!	!
4A/	4a/	.	4ff\	.	4c\	-ni	.	.	.	.	.	.
*	*	*	*	*	*	*Xij	*	*	*	*	*	*
=15	=15	=15	=15	=15	=15	=15	=15	=15	=15	=15	=15	=15
4G\	4b/	.	4gg\	.	4B\	u-	1r	.	.	.	.	.
!LO:SIC:v:s=4B\	!	!	!	!	!	!	!	!	!	!	!	!
4c\	4b/	.	4dd\	.	4G\	-ni-	.	.	.	.	.	.
4d\	4b/	.	4gg\	.	4B\	-ge-	.	.	.	.	.	.
!	!	!	!LO:SIC:v:s=4ff#\	!	!	!	!	!	!	!	!	!
4D/	4a/	.	4ff\	.	4A\	-ni-	.	.	.	.	.	.
=16	=16	=16	=16	=16	=16	=16	=16	=16	=16	=16	=16	=16
!	!	!	!LO:TX:t=P:problem:mixed beam	!	!	!	!	!	!	!	!	!
4G\	8b/L	.	8gg\L	.	4G\	-tum	2r	.	.	.	.	.
.	8g/	.	8g/	.	.	.	.	.	.	.	.	.
4r	8b/	.	8b/	.	4r	.	.	.	.	.	.	.
.	8dd/J	.	8dd/J	.	.	.	.	.	.	.	.	.
2r	4gg\	.	4gg\	.	2r	.	4gg\	Et	.	.	.	.
.	4r	.	4r	.	.	.	4dd\	ex	.	.	.	.
=17	=17	=17	=17	=17	=17	=17	=17	=17	=17	=17	=17	=17
4r	1r	.	1r	.	00r	.	(2.b\	Pa-	00r	00r	00r	00r
4G\	.	.	.	.	.	.	.	.	.	.	.	.
4G\	.	.	.	.	.	.	.	.	.	.	.	.
4G\	.	.	.	.	.	.	4dd\)	.	.	.	.	.
=18	=18	=18	=18	=18	=18	=18	=18	=18	=18	=18	=18	=18
4G\	8r	.	8r	.	.	.	4g\	-tre	.	.	.	.
.	8g/L	.	8g\L	.	.	.	.	.	.	.	.	.
4GG/	8b/	.	8b\	.	.	.	4r	.	.	.	.	.
.	8dd/J	.	8dd\J	.	.	.	.	.	.	.	.	.
2r	4gg\	.	4gg\	.	.	.	4gg\	na-	.	.	.	.
.	4r	.	4r	.	.	.	4dd\	-tu(m)	.	.	.	.
=19	=19	=19	=19	=19	=19	=19	=19	=19	=19	=19	=19	=19
4r	00r	.	00r	.	.	.	(2.b\	an-	.	.	.	.
4G\	.	.	.	.	.	.	.	.	.	.	.	.
4G\	.	.	.	.	.	.	.	.	.	.	.	.
4G\	.	.	.	.	.	.	4dd\)	-te	.	.	.	.
!LO:LB:g=original	!	!	!	!	!	!	!	!	!	!	!	!
=20	=20	=20	=20	=20	=20	=20	=20	=20	=20	=20	=20	=20
4G\	.	.	.	.	.	.	2g\	an-	.	.	.	.
4GG/	.	.	.	.	.	.	.	.	.	.	.	.
2r	.	.	.	.	.	.	4a\	.	.	.	.	.
.	.	.	.	.	.	.	4b\	-te	.	.	.	.
=21	=21	=21	=21	=21	=21	=21	=21	=21	=21	=21	=21	=21
4E\	.	.	.	.	0r	.	2cc\	om-	0r	0r	0r	0r
4D\	.	.	.	.	.	.	.	.	.	.	.	.
4E\	.	.	.	.	.	.	4dd\	-ni-	.	.	.	.
4BB/	.	.	.	.	.	.	4ee\	-a	.	.	.	.
!	!	!	!	!	!	!	!LO:LB:g=original	!	!	!	!	!
=22	=22	=22	=22	=22	=22	=22	=22	=22	=22	=22	=22	=22
4BB/	.	.	.	.	.	.	2gg\	Sae-	.	.	.	.
4GG/	.	.	.	.	.	.	.	.	.	.	.	.
4AA/	.	.	.	.	.	.	8gg\L	.	.	.	.	.
.	.	.	.	.	.	.	8ff\J	.	.	.	.	.
4BB/	.	.	.	.	.	.	8ee\L	-cu-	.	.	.	.
.	.	.	.	.	.	.	8ff\J	.	.	.	.	.
=23	=23	=23	=23	=23	=23	=23	=23	=23	=23	=23	=23	=23
4C/	8c/L	.	8cc\L	.	4r	.	4ee\	-la	4r	4r	4r	4r
.	8G/	.	8g\	.	.	.	.	.	.	.	.	.
4c\	8A/	.	8a\	.	4c\	De-	4ee\	De-	4cc\	4ee\	4cc\	4ee\
.	8B/J	.	8b\J	.	.	.	.	.	.	.	.	.
4c\	8c/L	.	8cc\L	.	4c\	-um	4ee\	-u(m)	4cc\	4ee\	4cc\	4ee\
.	8d/	.	8dd\	.	.	.	.	.	.	.	.	.
4c\	8e/	.	8ee\	.	4c\	de	4ee\	de	4cc\	4ee\	4cc\	4ee\
.	8c/J	.	8cc\J	.	.	.	.	.	.	.	.	.
=24	=24	=24	=24	=24	=24	=24	=24	=24	=24	=24	=24	=24
2d\	8f/L	.	8ff\L	.	2d\	De-	2ff\	De-	2dd\	2ff\	2dd\	2ff\
.	8g/	.	8gg\	.	.	.	.	.	.	.	.	.
.	8a/	.	8aa\	.	.	.	.	.	.	.	.	.
.	8g/J	.	8gg\J	.	.	.	.	.	.	.	.	.
2d\	8f/L	.	8ff\L	.	2d\	-o	2ff\	-o	2dd\	2ff\	2dd\	2ff\
.	8e/	.	8ee\	.	.	.	.	.	.	.	.	.
.	8d/	.	8dd\	.	.	.	.	.	.	.	.	.
.	8c/J	.	8cc\J	.	.	.	.	.	.	.	.	.
=25	=25	=25	=25	=25	=25	=25	=25	=25	=25	=25	=25	=25
4G\	8B/L	.	8b\L	.	4r	.	4r	.	4r	4r	4r	4r
.	8A/	.	8a\	.	.	.	.	.	.	.	.	.
4B\	8B/	.	8b\	.	4B\	lu-	4dd\	lu-	4g/	4dd\	4b\	4dd\
.	8c/J	.	8cc\J	.	.	.	.	.	.	.	.	.
!	!LO:LB:g=original	!	!	!	!	!	!	!	!	!	!	!
4B\	8d/L	.	8dd\L	.	4B\	-men	4dd\	-men	4g/	4dd\	4b\	4dd\
.	8e/	.	8ee\	.	.	.	.	.	.	.	.	.
4B\	8f/	.	8ff\	.	4B\	de	4dd\	de	4g/	4dd\	4b\	4dd\
.	8d/J	.	8dd\J	.	.	.	.	.	.	.	.	.
!	!	!	!LO:LB:g=original	!	!	!	!	!	!	!	!	!
=26	=26	=26	=26	=26	=26	=26	=26	=26	=26	=26	=26	=26
2c\	8e/L	.	8ee\L	.	4.c\	lu-	4.ee\	lu-	2cc\	2ee\	2cc\	2ee\
.	8f/	.	8ff\	.	.	.	.	.	.	.	.	.
.	8g/	.	8gg\	.	.	.	.	.	.	.	.	.
.	8f/J	.	8ff\J	.	8c\	-mi-	8ee\	-mi-	.	.	.	.
2C/	8e/L	.	8ee\L	.	4c\	-ne	4ee\	-ne	2cc\	2ee\	2cc\	2ee\
.	8d/	.	8dd\	.	.	.	.	.	.	.	.	.
.	8c/	.	8cc\	.	4r	.	4r	.	.	.	.	.
.	8B/J	.	8b\J	.	.	.	.	.	.	.	.	.
!	!	!	!	!	!LO:LB:g=original	!	!	!	!	!	!LO:LB:g=original	!
=27	=27	=27	=27	=27	=27	=27	=27	=27	=27	=27	=27	=27
!	!	!	!LO:TX:t=P:problem:mixed beam	!	!	!	!	!	!	!	!	!
4C/	8c/L	.	8cc\L	.	4C/	De-	2.cc\	De-	00r	00r	00r	00r
.	8c/	.	8c/	.	.	.	.	.	.	.	.	.
4D/	8e/	.	8e/	.	4D/	.	.	.	.	.	.	.
.	8g/J	.	8g/J	.	.	.	.	.	.	.	.	.
4E/	8b-X/L	.	8b-X/L	.	4E/	.	.	.	.	.	.	.
.	8a/	.	8a/	.	.	.	.	.	.	.	.	.
!	!	!	!	!	!LO:SIC:v:s=4D/	!	!	!	!	!	!	!
4D/	8b-/	.	8b-/	.	4C/	-um	4b-X\	-um	.	.	.	.
.	8g/J	.	8g/J	.	.	.	.	.	.	.	.	.
=28	=28	=28	=28	=28	=28	=28	=28	=28	=28	=28	=28	=28
!	!LO:SIC:v:s=8b-/L	!	!	!	!	!	!LO:SIC:v:s=2b-\	!	!	!	!	!
4F\	8b/L	.	8b-X/L	.	4F\	ve-	2b\	ve-	.	.	.	.
.	8a/	.	8a/	.	.	.	.	.	.	.	.	.
4G\	8g/	.	8g/	.	4G\	.	.	.	.	.	.	.
.	8f/J	.	8f/J	.	.	.	.	.	.	.	.	.
4A\	8e/L	.	8e/L	.	4A\	.	4a\	-ru(m)	.	.	.	.
.	8f/	.	8f/	.	.	.	.	.	.	.	.	.
4F\	8g/	.	8g/	.	4F\	-rum	4a\	de	.	.	.	.
.	8f/J	.	8f/J	.	.	.	.	.	.	.	.	.
=29	=29	=29	=29	=29	=29	=29	=29	=29	=29	=29	=29	=29
!	!	!	!LO:TX:t=P:problem:mixed beam	!	!	!	!	!	!	!	!	!
4D\	8d/L	.	8dd\L	.	4D/	De	2.dd\	De-	.	.	.	.
.	8d/	.	8d/	.	.	.	.	.	.	.	.	.
4E\	8f#X/	.	8f#X/	.	4E/	.	.	.	.	.	.	.
.	8a/J	.	8a/J	.	.	.	.	.	.	.	.	.
!LO:SIC:v:s=4F#\	!	!	!	!	!LO:SIC:v:s=4F#/	!	!	!	!	!	!	!
4F\	8cc\L	.	8cc\L	.	4F/	De-	.	.	.	.	.	.
.	8bn\	.	8bn\	.	.	.	.	.	.	.	.	.
4D\	8cc\	.	8cc\	.	4D/	-o	4cc\	-o	.	.	.	.
.	8a\J	.	8a\J	.	.	.	.	.	.	.	.	.
!LO:LB:g=original	!	!	!	!	!	!	!	!	!	!	!	!
=30	=30	=30	=30	=30	=30	=30	=30	=30	=30	=30	=30	=30
4G\	8cc\L	.	8cc\L	.	4G\	ve-	2cc\	ve-	.	.	.	.
.	8b\	.	8b\	.	.	.	.	.	.	.	.	.
4A\	8a\	.	8a\	.	4A\	.	.	.	.	.	.	.
.	8g\J	.	8g\J	.	.	.	.	.	.	.	.	.
4B\	8f#X/L	.	8f#X/L	.	4B\	-ro	4b\	-ro	.	.	.	.
.	8g/	.	8g/	.	.	.	.	.	.	.	.	.
4G\	8a/	.	8a/	.	4G\	.	4r	.	.	.	.	.
.	8g/J	.	8g/J	.	.	.	.	.	.	.	.	.
!	!	!	!	!	!	!	!LO:LB:g=original	!	!	!	!	!
=31	=31	=31	=31	=31	=31	=31	=31	=31	=31	=31	=31	=31
!	!	!	!LO:TX:t=P:problem:mixed beam	!	!	!	!	!	!	!	!	!
4G\	8g/L	.	8gg\L	.	4G\	De-	2.gg\	De-	00r	00r	00r	00r
.	8G/	.	8g/	.	.	.	.	.	.	.	.	.
4A\	8B/	.	8b/	.	4A\	.	.	.	.	.	.	.
.	8d/J	.	8dd/J	.	.	.	.	.	.	.	.	.
4B\	8fn/L	.	8ffn\L	.	4B\	-um	.	.	.	.	.	.
.	8e/	.	8ee\	.	.	.	.	.	.	.	.	.
4G\	8f/	.	8ff\	.	4G\	.	4ff\	-um	.	.	.	.
.	8d/J	.	8dd\J	.	.	.	.	.	.	.	.	.
=32	=32	=32	=32	=32	=32	=32	=32	=32	=32	=32	=32	=32
4c\	8e/L	.	8ee\L	.	4c\	De-	2ee\	ve-	.	.	.	.
.	8c/	.	8cc\	.	.	.	.	.	.	.	.	.
4B\	8e/	.	8ee\	.	4B\	.	.	.	.	.	.	.
.	8g/J	.	8gg\J	.	.	.	.	.	.	.	.	.
4c\	8cc\L	.	8ccc\L	.	4c\	-um	4cc\	-ru(m)	.	.	.	.
.	8b\	.	8bb\	.	.	.	.	.	.	.	.	.
4E\	8cc\	.	8ccc\	.	4E\	.	4cc\	de	.	.	.	.
.	8g\J	.	8gg\J	.	.	.	.	.	.	.	.	.
!	!LO:LB:g=original	!	!LO:LB:g=original	!	!	!	!	!	!	!	!	!
=33	=33	=33	=33	=33	=33	=33	=33	=33	=33	=33	=33	=33
4F\	8a/L	.	8aa\L	.	4F\	ve-	4dd\	De-	.	.	.	.
.	8e/	.	8ee\	.	.	.	.	.	.	.	.	.
4D\	8f/	.	8ff\	.	4D\	.	4f\	-o	.	.	.	.
.	8d/J	.	8dd\J	.	.	.	.	.	.	.	.	.
4G\	4c/	.	4cc\	.	4G\	.	(4cc\	ve-	.	.	.	.
4GG/	4B/	.	4b\	.	4GG/	.	4b\)	.	.	.	.	.
=34	=34	=34	=34	=34	=34	=34	=34	=34	=34	=34	=34	=34
!	!	!	!LO:TX:t=P:problem:mixed beam	!	!	!	!	!	!	!	!	!
4C/	8c/L	.	8cc\L	.	4C/	-rum	4cc\	-ro	.	.	.	.
.	8c/	.	8c/	.	.	.	.	.	.	.	.	.
8E/L	8e/	.	8e/	.	4r	.	4r	.	.	.	.	.
8G/J	8g/J	.	8g/J	.	.	.	.	.	.	.	.	.
4c\	4cc 4e 4G/	.	4cc\	.	2r	.	2r	.	.	.	.	.
4r	4r	.	4r	.	.	.	.	.	.	.	.	.
=35	=35	=35	=35	=35	=35	=35	=35	=35	=35	=35	=35	=35
4r	4r	.	4r	.	00r	.	2.ee\	Ge-	00r	00r	00r	00r
*	*	*	*	*below	*	*	*	*	*	*	*	*
!	!	!LO:DY:b:t=p.	!	!LO:DY:b:rj:t=p.	!	!	!	!	!	!	!	!
4A\	4a/	p	4cc\	p	.	.	.	.	.	.	.	.
4A\	4a/	.	4cc\	.	.	.	.	.	.	.	.	.
4A\	4a/	.	4cc\	.	.	.	4ee\	-ni-	.	.	.	.
=36	=36	=36	=36	=36	=36	=36	=36	=36	=36	=36	=36	=36
4r	4r	.	4r	.	.	.	(4dd\	-tum	.	.	.	.
4A\	4a/	.	4cc\	.	.	.	4cc\)	.	.	.	.	.
4A\	4a/	.	4cc\	.	.	.	(4b\	non	.	.	.	.
4A\	4a/	.	4cc\	.	.	.	4a\)	.	.	.	.	.
=37	=37	=37	=37	=37	=37	=37	=37	=37	=37	=37	=37	=37
4r	4r	.	4r	.	.	.	1a	fa-	.	.	.	.
4B\	4b/	.	4dd\	.	.	.	.	.	.	.	.	.
4B\	4b/	.	4dd\	.	.	.	.	.	.	.	.	.
4B\	4b/	.	4dd\	.	.	.	.	.	.	.	.	.
=38	=38	=38	=38	=38	=38	=38	=38	=38	=38	=38	=38	=38
4r	4r	.	4r	.	.	.	1g#X	-ctum	.	.	.	.
4B\	4b/	.	4dd\	.	.	.	.	.	.	.	.	.
4B\	4b/	.	4dd\	.	.	.	.	.	.	.	.	.
4B\	4b/	.	4dd\	.	.	.	.	.	.	.	.	.
!LO:LB:g=original	!	!	!	!	!	!	!	!	!	!	!	!
=39	=39	=39	=39	=39	=39	=39	=39	=39	=39	=39	=39	=39
!	!	!	!	!	!	!	!LO:SIC:v:s=4g#\	!	!	!	!	!
4r	4r	.	4r	.	00r	.	4g\	con-	00r	00r	00r	00r
!	!	!	!	!	!	!	!LO:SIC:v:s=4g#\	!	!	!	!	!
4G#X\	4g#X/	.	4b\	.	.	.	4g\	-sub-	.	.	.	.
!	!	!	!	!	!	!	!LO:SIC:v:s=4g#\	!	!	!	!	!
4G#\	4g#/	.	4b\	.	.	.	4g\	-stan-	.	.	.	.
4G#\	4g#/	.	4b\	.	.	.	4ff\	.	.	.	.	.
=40	=40	=40	=40	=40	=40	=40	=40	=40	=40	=40	=40	=40
4r	4r	.	4r	.	.	.	(4ff\	-ti[a]-	.	.	.	.
!LO:SIC:v:s=4G#\	!LO:SIC:v:s=4g#/	!	!	!	!	!	!	!	!	!	!	!
4G\	4g/	.	4b\	.	.	.	4ee\)	.	.	.	.	.
!LO:SIC:v:s=4G#\	!LO:SIC:v:s=4g#/	!	!	!	!	!	!	!	!	!	!	!
4G\	4g/	.	4b\	.	.	.	(4ee\	-lem	.	.	.	.
!LO:SIC:v:s=4G#\	!LO:SIC:v:s=4g#/	!	!	!	!	!	!	!	!	!	!	!
4G\	4g/	.	4b\	.	.	.	4dd\)	.	.	.	.	.
=41	=41	=41	=41	=41	=41	=41	=41	=41	=41	=41	=41	=41
4r	4r	.	4r	.	.	.	1dd	Pa-	.	.	.	.
4A\	4a/	.	4cc\	.	.	.	.	.	.	.	.	.
4A\	4a/	.	4cc\	.	.	.	.	.	.	.	.	.
4A\	4a/	.	4cc\	.	.	.	.	.	.	.	.	.
!	!	!	!LO:LB:g=original	!	!	!	!	!	!	!	!	!
=42	=42	=42	=42	=42	=42	=42	=42	=42	=42	=42	=42	=42
4r	4r	.	4r	.	.	.	2cc\	-tri	.	.	.	.
4A\	4a/	.	4cc\	.	.	.	.	.	.	.	.	.
4A\	4a/	.	4cc\	.	.	.	2r	.	.	.	.	.
4A\	4a/	.	4cc\	.	.	.	.	.	.	.	.	.
!	!	!	!	!	!LO:LB:g=original	!	!LO:LB:g=original	!	!	!	!	!
=43	=43	=43	=43	=43	=43	=43	=43	=43	=43	=43	=43	=43
2A\	2a/	.	2cc\	.	2A\	per	2cc\	Per	00r	00r	00r	00r
4G#X\	4g#X/	.	4b\	.	4G#X\	quem	(4b\	quem	.	.	.	.
4A\	4a/	.	4cc\	.	4A\	.	4cc\)	.	.	.	.	.
!	!LO:LB:g=original	!	!	!	!	!	!	!	!	!	!	!
=44	=44	=44	=44	=44	=44	=44	=44	=44	=44	=44	=44	=44
2F\	2f/	.	2dd\	.	2F\	o-	2dd\	o-	.	.	.	.
4E\	4e/	.	4cc\	.	4E\	-mni-	4cc\	-mni-	.	.	.	.
4F\	4f/	.	4dd\	.	4F\	-a	4dd\	-a	.	.	.	.
=45	=45	=45	=45	=45	=45	=45	=45	=45	=45	=45	=45	=45
*	*	*	*	*	*	*ij	*	*ij	*	*	*	*
2G\	2gn/	.	2b\	.	2G\	per	2b\	Per	.	.	.	.
4F\	4f/	.	4a\	.	4F\	quem	4a\	quem	.	.	.	.
4G\	4g/	.	4b\	.	4G\	.	4b\	.	.	.	.	.
=46	=46	=46	=46	=46	=46	=46	=46	=46	=46	=46	=46	=46
2E\	2e/	.	2cc\	.	2E\	o-	2cc\	o-	.	.	.	.
4D\	4d/	.	4b\	.	4D\	-mni-	4b\	-mni-	.	.	.	.
4E\	4e/	.	4cc\	.	4E\	-a	4cc\	-a	.	.	.	.
*	*	*	*	*	*	*Xij	*	*Xij	*	*	*	*
=47	=47	=47	=47	=47	=47	=47	=47	=47	=47	=47	=47	=47
2F\	2f/	.	2a\	.	2F\	o-	2a\	o-	00r	00r	00r	00r
4D\	4d/	.	4b\	.	4D\	-mni-	4b\	-mni-	.	.	.	.
4E\	4e/	.	4cc\	.	4E\	-a	4cc\	-a	.	.	.	.
=48	=48	=48	=48	=48	=48	=48	=48	=48	=48	=48	=48	=48
2F\	2f/	.	2dd\	.	2F\	fa-	2dd\	fa-	.	.	.	.
2G\	2g/	.	2b\	.	2G\	-cta	2b\	-cta	.	.	.	.
!LO:LB:g=original	!	!	!	!	!	!	!	!	!	!	!	!
=49	=49	=49	=49	=49	=49	=49	=49	=49	=49	=49	=49	=49
!	!	!	!LO:TX:t=P:problem:mixed beam	!	!	!	!	!	!	!	!	!
4C/	8c/L	.	8cc\L	.	4C/	sunt	4cc\	sunt	.	.	.	.
.	8c/	.	8c/	.	.	.	.	.	.	.	.	.
4r	8e/	.	8e/	.	4r	.	4r	.	.	.	.	.
.	8g/J	.	8g/J	.	.	.	.	.	.	.	.	.
2r	4c/	.	4cc\	.	4c\	et	2r	.	.	.	.	.
.	4r	.	4r	.	4c\	pro-	.	.	.	.	.	.
=50	=50	=50	=50	=50	=50	=50	=50	=50	=50	=50	=50	=50
!	!	!	!	!	!	!	!LO:TX:a:t=3:problem:dopisane ołówkiem	!	!	!	!	!
1r	0r	.	0r	.	4c\	-pter	0r	.	.	.	.	.
.	.	.	.	.	4G\	.	.	.	.	.	.	.
.	.	.	.	.	4E\	nos	.	.	.	.	.	.
.	.	.	.	.	4G\	.	.	.	.	.	.	.
!	!	!	!	!	!LO:LB:g=original	!	!	!	!	!	!	!
=51	=51	=51	=51	=51	=51	=51	=51	=51	=51	=51	=51	=51
4C/	.	.	.	.	4C/	pro-	.	.	0r	0r	0r	0r
4r	.	.	.	.	4c\	.	.	.	.	.	.	.
2r	.	.	.	.	4c\	-pter	.	.	.	.	.	.
.	.	.	.	.	4c\	nos	.	.	.	.	.	.
=52	=52	=52	=52	=52	=52	=52	=52	=52	=52	=52	=52	=52
1r	1r	.	1r	.	4c\	pro-	1r	.	.	.	.	.
.	.	.	.	.	8G\L	.	.	.	.	.	.	.
.	.	.	.	.	8G\J	-pter	.	.	.	.	.	.
.	.	.	.	.	4E\	nos-	.	.	.	.	.	.
.	.	.	.	.	4G\	.	.	.	.	.	.	.
!	!	!	!	!	!	!	!	!	!LO:LB:g=original	!	!	!LO:LB:g=original
=53	=53	=53	=53	=53	=53	=53	=53	=53	=53	=53	=53	=53
2C/	8g/L	.	8c/L	.	4C/	-stra(m)	4r	.	4r	4r	4r	4r
.	8G/	.	8g/	.	.	.	.	.	.	.	.	.
.	8A/	.	8a/	.	4c\	de-	4ee\	de-	4cc\	4ee\	4cc\	4ee\
.	8B/J	.	8b/J	.	.	.	.	.	.	.	.	.
2c\	8c/L	.	8cc\L	.	4c\	-scen-	4ee\	-scen-	4cc\	4ee\	4cc\	4ee\
.	8d/	.	8dd\	.	.	.	.	.	.	.	.	.
.	8e/	.	8ee\	.	8B\L	.	8dd\	-dit	4cc\	4ee\	4cc\	4ee\
.	8c/J	.	8cc\J	.	8c\J	.	8ee\	de	.	.	.	.
!	!	!	!	!	!	!	!	!	!	!LO:LB:g=original	!	!
=54	=54	=54	=54	=54	=54	=54	=54	=54	=54	=54	=54	=54
2d\	8f/L	.	8ff\L	.	4d\	.	4ff\	cae-	2dd\	2ff\	2dd\	2ff\
.	8g/	.	8gg\	.	.	.	.	.	.	.	.	.
.	8a/	.	8aa\	.	4d\	-dit	4ff\	-lis	.	.	.	.
.	8g/J	.	8gg\J	.	.	.	.	.	.	.	.	.
2r	8f/L	.	8ff\L	.	2r	.	2r	.	2dd\	2ff\	2dd\	2ff\
.	8e/	.	8ee\	.	.	.	.	.	.	.	.	.
.	8d/	.	8dd\	.	.	.	.	.	.	.	.	.
.	8c/J	.	8cc\J	.	.	.	.	.	.	.	.	.
!	!	!	!LO:LB:g=original	!	!	!	!LO:LB:g=original	!	!	!	!	!
=55	=55	=55	=55	=55	=55	=55	=55	=55	=55	=55	=55	=55
2G\	8B/L	.	8b\L	.	4r	.	4r	.	4r	4r	4r	4r
.	8A/	.	8a\	.	.	.	.	.	.	.	.	.
.	8B/	.	8b\	.	4B\	De-	4dd\	De-	4g/	4dd\	4b\	4dd\
.	8c/J	.	8cc\J	.	.	.	.	.	.	.	.	.
2B\	8d/L	.	8dd\L	.	4B\	.	4dd\	-scen-	4g/	4dd\	4b\	4dd\
.	8e/	.	8ee\	.	.	.	.	.	.	.	.	.
.	8f/	.	8ff\	.	8A\L	-scen-	8cc\	-dit	4g/	4dd\	4b\	4dd\
.	8d/J	.	8dd\J	.	8B\J	.	8dd\	de	.	.	.	.
!	!LO:LB:g=original	!	!	!	!	!	!	!	!	!	!	!
=56	=56	=56	=56	=56	=56	=56	=56	=56	=56	=56	=56	=56
2c\	8e/L	.	8ee\L	.	4c\	.	4ee\	cae-	2cc\	2ee\	2cc\	2ee\
.	8f/	.	8ff\	.	.	.	.	.	.	.	.	.
.	8g/	.	8gg\	.	4c\	-dit	4ee\	-lis	.	.	.	.
.	8f/J	.	8ff\J	.	.	.	.	.	.	.	.	.
2r	8e/L	.	8ee\L	.	4r	.	4r	.	2cc\	2ee\	2cc\	2ee\
.	8d/	.	8dd\	.	.	.	.	.	.	.	.	.
.	8c/	.	8cc\	.	4E\	de-	4g/	de-	.	.	.	.
.	8B/J	.	8b\J	.	.	.	.	.	.	.	.	.
!	!	!	!	!	!LO:LB:g=original	!	!	!	!	!	!	!
=57	=57	=57	=57	=57	=57	=57	=57	=57	=57	=57	=57	=57
2F\	8A/L	.	8a/L	.	2F\	-scen-	2a\	-scen-	0r	0r	0r	0r
.	8B/	.	8b/	.	.	.	.	.	.	.	.	.
.	8c/	.	8cc/	.	.	.	.	.	.	.	.	.
.	8d/J	.	8dd/J	.	.	.	.	.	.	.	.	.
2G\	8B/L	.	8b/L	.	4G\	-dit	4b\	-dit	.	.	.	.
.	8c/	.	8cc/	.	.	.	.	.	.	.	.	.
*	*	*	*	*	*	*ij	*	*	*	*	*	*
.	8d/	.	8dd/	.	4G\	de-	4b\	de-	.	.	.	.
.	8e/J	.	8ee/J	.	.	.	.	.	.	.	.	.
=58	=58	=58	=58	=58	=58	=58	=58	=58	=58	=58	=58	=58
2A\	8c/L	.	8cc\L	.	2A\	-scen-	2cc\	-scen-	.	.	.	.
.	8d/	.	8dd\	.	.	.	.	.	.	.	.	.
.	8e/	.	8ee\	.	.	.	.	.	.	.	.	.
.	8f/J	.	8ff\J	.	.	.	.	.	.	.	.	.
2B\	8d/L	.	8dd\L	.	4B\	-dit	4dd\	.	.	.	.	.
.	8e/	.	8ee\	.	.	.	.	.	.	.	.	.
.	8f/	.	8ff\	.	4B\	de-	4dd\	-dit	.	.	.	.
.	8g/J	.	8gg\J	.	.	.	.	.	.	.	.	.
=59	=59	=59	=59	=59	=59	=59	=59	=59	=59	=59	=59	=59
*	*tremolo	*	*	*	*	*	*	*	*	*	*	*
2c\	8eL 8G/	.	8ee\L	.	2c\	-scen-	2ee\	de-	2cc\	2ee\	2ee\	2gg\
.	8e 8G/	.	8gg\	.	.	.	.	.	.	.	.	.
.	8e 8G/	.	8aa\	.	.	.	.	.	.	.	.	.
.	8eJ 8G/	.	8bb\J	.	.	.	.	.	.	.	.	.
2A\	8eL 8G/	.	8ccc\L	.	4A\	-dit	4cc\	-scen-	2ee\	2gg\	2cc\	2ee\
*	*	*	*	*	*	*Xij	*	*	*	*	*	*
.	8e 8G/	.	8gg\	.	.	.	.	.	.	.	.	.
.	8e 8G/	.	8ee\	.	4A\	de	4cc\	-dit	.	.	.	.
.	8eJ 8G/	.	8cc\J	.	.	.	.	.	.	.	.	.
=60	=60	=60	=60	=60	=60	=60	=60	=60	=60	=60	=60	=60
2F\	8fL 8G/	.	2dd\	.	2F\	cae-	(2dd\	de	2dd\	2ff\	2dd\	2ff\
.	8f 8G/	.	.	.	.	.	.	.	.	.	.	.
.	8f 8G/	.	.	.	.	.	.	.	.	.	.	.
.	8fJ 8G/	.	.	.	.	.	.	.	.	.	.	.
2G\	8dL 8G/	.	2bb 2dd\	.	2G\	.	2b\)	cae-	2g/	2dd\	2b\	2dd\
.	8d 8G/	.	.	.	.	.	.	.	.	.	.	.
.	8d 8G/	.	.	.	.	.	.	.	.	.	.	.
.	8dJ 8G/	.	.	.	.	.	.	.	.	.	.	.
*	*Xtremolo	*	*	*	*	*	*	*	*	*	*	*
=61	=61	=61	=61	=61	=61	=61	=61	=61	=61	=61	=61	=61
2C/	2e 2G/	.	2ccc 2ee\	.	2C/	-lis	2cc\	-lis	2e/	2cc\	2cc\	2ee\
2r	2r	.	2r	.	2r	.	2r	.	2r	2r	2r	2r
!	!	!	!	!	!	!	!	!	!LO:TX:t=Et Incarnatus Tacet	!LO:TX:t=Et Incarnatus Tacet	!	!
==	==	==	==	==	==	==	==	==	==	==	==	==
*-	*-	*-	*-	*-	*-	*-	*-	*-	*-	*-	*-	*-
!!!system-decoration: [(g1)][(g2)][(g3)][(g4)]g5
!!!ENC: Katarzyna Serwa
!!!END: 2021-11-29
!!!ENC: Anastazja Marusiak
!!!END: 2021-11-22
